X:1
T:Title
L:1/8
Q:1/4=100
M:4/4
K:C
V:1 treble nm="Grand Piano"
V:1
 AAAG A2 AG | A2 AG A2 E2- | E E2 F G2 F2 | A2 GF E4 | A2 AG A2 AG | A2 AG A2 E2- | E E2 F G2 F2 | %7
w: ????~???? * * * * * *|||||||
 A2 GF E4 | F3 E E2 DD | E2 FE E2 D2 | z GGF FE E2 | B2 AG GF E2 | F3 E E2 DD | E2 FE E2 D2 | %14
w: |||||||
 z GGF FE E2 | B2 AG GF E2 | c3 B B2 AG- | G B2 A A2 FF | AAAG GF E2 | DEDE F2 F2 | BBAG GF E2 | %21
w: |||||||
 DEDE F2 F2 |[M:9/8] BBA GGF E3 |] %23
w: ||

